X:41
T:What meikle sorrow ails you?
M:C|
L:1/8
K:DDor
e|cAAg agec    |defd gfed|cAAg agec    |defg Te2d:|
e|cAAG E/E/E c2|defd gfed|cAAG E/E/E c2|defg Te2d:|

% @@@@@@@@@@@@@@@@@@@@@@@@@@@@@@@@@@

%% 42. ===============================================================================

% @THE FIRE SIDE@
%     ^Reel.^
%
% *FIRST Man cast off and turn 2d Woman.  First Woman do the same.  *First Couple lead
% down thro' 3d Couple and cast up.  Then Right and Left with 2d Couple.  *SETT across
% and turn.  *Reel at the sides.  Sett to your Partner and turn.

% @@@@@@@@@@@@@@@@@@@@@@@@@@@@@@@@@@

